X: 17
T:Merrily Kiss the Quaker's Wife
T:Merrily Kiss the Quaker
M:12/8
L:1/8
R:Single Jig
K:G
D[|:GAB D2B|c2A BGE|GAB DEG|A3 AGE|!
GAB D2B|c2A BGE|GAB D2E|1G3 G2D:|2G3 G2A|!
|:BGG AGG|BGG AGE|GAB DEG|A3 AGA|!
BGG AGG|BGG AGE|GAB D2E|1G3 G2A:|2G3 G2d|!
|:g3 aga|bge dBd|g3 gab|a3 age|!
~g3 ~f3|efe dBA|GAB D2E|1G3 G2d:|2G3 G2D|]!
